;FLAVOR:Marlin
;TIME:11106
;Filament used: 8.12042m
;Layer height: 0.2
;MINX:20.536
;MINY:23.572
;MINZ:0.2
;MAXX:208.236
;MAXY:110.971
;MAXZ:10.6
;Generated with Cura_SteamEngine 5.0.0
M140 S60
M105
M190 S60
M104 S200
M105
M109 S200
M82 ;absolute extrusion mode
; -- START GCODE --
G21                     ;set units to millimetres
G90                     ;set to absolute positioning
M106 S0                 ;set fan speed to zero (turned off)
G28                     ;home all axis
G92 E0                  ;zero the extruded length
G1 Z1 F1000             ;move up slightly
G1 Y60.0 Z0 E9.0 F1000.0;intro line
G1 Y100.0 E21.5 F1000.0 ;continue line
G92 E0                  ;zero the extruded length again
; -- end of START GCODE --
G92 E0
G92 E0
G1 F2700 E-5
;LAYER_COUNT:53
;LAYER:0
M107
G0 F3600 X21.915 Y33.156 Z0.2
G0 X20.536 Y36.428
;TYPE:SKIRT
G1 F2700 E0
G1 F1200 X20.545 Y35.739 E0.02292
G1 X20.592 Y35.236 E0.03972
G1 X20.717 Y34.746 E0.05654
G1 X20.918 Y34.282 E0.07336
G1 X21.189 Y33.855 E0.09018
G1 X21.524 Y33.477 E0.10698
G1 X21.915 Y33.156 E0.1238
G1 X22.351 Y32.9 E0.14062
G1 X22.822 Y32.717 E0.15743
G1 X23.316 Y32.61 E0.17424
G1 X23.976 Y32.573 E0.19623
G1 X68.688 Y32.572 E1.68335
G1 X71.485 Y32.532 E1.77639
G1 X74.202 Y32.417 E1.86684
G1 X76.948 Y32.222 E1.9584
G1 X79.654 Y31.954 E2.04884
G1 X82.377 Y31.606 E2.14015
G1 X85.078 Y31.181 E2.23109
G1 X87.786 Y30.678 E2.3227
G1 X90.443 Y30.106 E2.41309
G1 X93.09 Y29.458 E2.50373
G1 X95.73 Y28.731 E2.59481
G1 X98.377 Y27.921 E2.68688
G1 X100.972 Y27.046 E2.77796
G1 X103.508 Y26.11 E2.86787
G1 X106.07 Y25.081 E2.9597
G1 X108.904 Y23.847 E3.06251
G1 X109.382 Y23.683 E3.07932
G1 X110.091 Y23.582 E3.10314
G1 X110.5 Y23.572 E3.11674
G1 X204.375 Y23.572 E6.23904
G1 X205.073 Y23.582 E6.26226
G1 X205.576 Y23.629 E6.27906
G1 X206.066 Y23.755 E6.29589
G1 X206.53 Y23.957 E6.31272
G1 X206.956 Y24.229 E6.32953
G1 X207.334 Y24.564 E6.34633
G1 X207.654 Y24.955 E6.36313
G1 X207.909 Y25.392 E6.37996
G1 X208.092 Y25.863 E6.39677
G1 X208.199 Y26.357 E6.41358
G1 X208.235 Y27.012 E6.4354
G1 X208.236 Y107.076 E9.09834
G1 X208.227 Y107.803 E9.12252
G1 X208.181 Y108.306 E9.13932
G1 X208.056 Y108.796 E9.15614
G1 X207.855 Y109.26 E9.17296
G1 X207.584 Y109.687 E9.18978
G1 X207.249 Y110.066 E9.2066
G1 X206.859 Y110.387 E9.2234
G1 X206.423 Y110.643 E9.24022
G1 X205.952 Y110.826 E9.25702
G1 X205.458 Y110.934 E9.27384
G1 X204.796 Y110.971 E9.2959
G1 X110.819 Y110.971 E12.42158
G1 X110.106 Y110.958 E12.4453
G1 X109.602 Y110.909 E12.46214
G1 X108.886 Y110.693 E12.48702
G1 X107.817 Y110.227 E12.5258
G1 X107.304 Y109.995 E12.54453
G1 X104.764 Y108.934 E12.63609
G1 X102.175 Y107.938 E12.72835
G1 X99.61 Y107.034 E12.8188
G1 X97.035 Y106.206 E12.90877
G1 X94.397 Y105.44 E13.00013
G1 X91.732 Y104.748 E13.09171
G1 X89.091 Y104.14 E13.18185
G1 X86.365 Y103.595 E13.27431
G1 X83.69 Y103.137 E13.36457
G1 X81.004 Y102.755 E13.45481
G1 X78.261 Y102.444 E13.54663
G1 X75.522 Y102.212 E13.63805
G1 X72.801 Y102.059 E13.7287
G1 X68.698 Y101.972 E13.86519
G1 X24.397 Y101.972 E15.33865
G1 X23.699 Y101.962 E15.36187
G1 X23.196 Y101.915 E15.37867
G1 X22.706 Y101.789 E15.3955
G1 X22.242 Y101.587 E15.41233
G1 X21.816 Y101.315 E15.42914
G1 X21.438 Y100.98 E15.44594
G1 X21.118 Y100.589 E15.46275
G1 X20.863 Y100.152 E15.47957
G1 X20.68 Y99.681 E15.49638
G1 X20.573 Y99.187 E15.51319
G1 X20.537 Y98.517 E15.53551
G1 X20.536 Y36.428 E17.6006
G1 F2700 E12.6006
;MESH:PI-RACK-HARD-DRIVE-PLATE.stl
G0 F3600 X23.071 Y36.428
G0 X24.166 Y36.428
G0 X44.032 Y42.722
G1 F2700 E17.6006
G0 F3600 X44.539 Y42.681
;TYPE:WALL-OUTER
G1 F1200 X44.636 Y42.128 E17.61927
G1 X44.88 Y41.593 E17.63883
G1 X45.253 Y41.151 E17.65806
G1 X45.718 Y40.824 E17.67697
G1 X46.261 Y40.627 E17.69618
G1 X46.831 Y40.576 E17.71522
G1 X47.396 Y40.675 E17.7343
G1 X47.919 Y40.919 E17.75349
G1 X48.359 Y41.29 E17.77263
G1 X48.674 Y41.738 E17.79085
G1 X48.877 Y42.278 E17.81004
G1 X48.932 Y42.848 E17.82908
G1 X48.836 Y43.415 E17.84821
G1 X48.592 Y43.953 E17.86786
G1 X48.219 Y44.396 E17.88712
G1 X47.753 Y44.723 E17.90605
G1 X47.212 Y44.92 E17.9252
G1 X46.64 Y44.97 E17.9443
G1 X46.076 Y44.871 E17.96335
G1 X45.553 Y44.627 E17.98254
G1 X45.113 Y44.257 E18.00166
G1 X44.797 Y43.806 E18.01998
G1 X44.594 Y43.266 E18.03917
G1 X44.539 Y42.681 E18.05871
G0 F3600 X44.573 Y42.484
G0 X44.069 Y42.388
G0 X44.143 Y43.339
G0 X44.757 Y44.543
G0 X52.787 Y49.772
G0 X53.297 Y49.772
G1 F1200 X53.349 Y49.636 E18.06355
G1 X53.497 Y49.572 E18.06891
G1 X104.19 Y49.571 E19.75497
G1 X104.344 Y49.643 E19.76062
G1 X104.39 Y49.772 E19.76518
G1 X104.389 Y84.648 E20.92516
G1 X104.301 Y84.788 E20.93066
G1 X104.07 Y84.821 E20.93842
G1 X53.497 Y84.821 E22.62049
G1 X53.362 Y84.77 E22.62529
G1 X53.297 Y84.621 E22.63069
G1 X53.297 Y49.772 E23.78977
G0 F3600 X53.349 Y49.636
G0 X53.399 Y49.615
G0 X53.399 Y49.062
G0 X44.102 Y91.726
G0 X44.609 Y91.688
G1 F1200 X44.707 Y91.118 E23.80901
G1 X44.956 Y90.582 E23.82867
G1 X45.331 Y90.144 E23.84785
G1 X45.798 Y89.819 E23.86677
G1 X46.342 Y89.624 E23.88599
G1 X46.913 Y89.579 E23.90504
G1 X47.479 Y89.681 E23.92417
G1 X47.999 Y89.929 E23.94333
G1 X48.435 Y90.302 E23.96242
G1 X48.749 Y90.752 E23.98067
G1 X48.937 Y91.266 E23.99887
G1 X48.999 Y91.862 E24.0188
G1 X48.902 Y92.428 E24.0379
G1 X48.659 Y92.951 E24.05708
G1 X48.278 Y93.406 E24.07682
G1 X47.809 Y93.73 E24.09578
G1 X47.266 Y93.925 E24.11497
G1 X46.694 Y93.971 E24.13405
G1 X46.129 Y93.869 E24.15315
G1 X45.609 Y93.62 E24.17232
G1 X45.173 Y93.248 E24.19139
G1 X44.859 Y92.796 E24.20969
G1 X44.661 Y92.256 E24.22882
G1 X44.609 Y91.688 E24.24779
G0 F3600 X44.642 Y91.491
G0 X44.139 Y91.397
G0 X44.59 Y90.31
G0 X45.622 Y89.398
G0 X46.668 Y89.147
G0 X103.469 Y92.016
G0 X103.973 Y91.946
G1 F1200 X104.037 Y91.372 E24.267
G1 X104.251 Y90.824 E24.28657
G1 X104.583 Y90.378 E24.30506
G1 X105.047 Y90.007 E24.32482
G1 X105.573 Y89.782 E24.34385
G1 X106.144 Y89.7 E24.36304
G1 X106.717 Y89.768 E24.38223
G1 X107.249 Y89.981 E24.40129
G1 X107.707 Y90.324 E24.42032
G1 X108.061 Y90.774 E24.43936
G1 X108.28 Y91.283 E24.45779
G1 X108.369 Y91.871 E24.47757
G1 X108.303 Y92.427 E24.49619
G1 X108.089 Y92.976 E24.51579
G1 X107.757 Y93.42 E24.53423
G1 X107.293 Y93.791 E24.55399
G1 X106.768 Y94.016 E24.57299
G1 X106.196 Y94.098 E24.59221
G1 X105.624 Y94.03 E24.61137
G1 X105.091 Y93.817 E24.63046
G1 X104.632 Y93.473 E24.64954
G1 X104.278 Y93.024 E24.66855
G1 X104.06 Y92.514 E24.687
G1 X103.973 Y91.946 E24.70611
G0 F3600 X103.995 Y91.748
G0 X103.486 Y91.685
G0 X104.828 Y85.259
G0 X104.828 Y49.134
G0 X103.402 Y43.001
G0 X103.906 Y42.931
G1 F1200 X103.97 Y42.358 E24.72529
G1 X104.184 Y41.807 E24.74495
G1 X104.516 Y41.363 E24.76339
G1 X104.98 Y40.992 E24.78315
G1 X105.505 Y40.767 E24.80215
G1 X106.077 Y40.685 E24.82136
G1 X106.65 Y40.753 E24.84056
G1 X107.182 Y40.966 E24.85962
G1 X107.641 Y41.31 E24.87869
G1 X107.995 Y41.759 E24.89771
G1 X108.213 Y42.269 E24.91616
G1 X108.3 Y42.837 E24.93527
G1 X108.236 Y43.411 E24.95448
G1 X108.022 Y43.961 E24.97411
G1 X107.69 Y44.405 E24.99255
G1 X107.226 Y44.776 E25.01231
G1 X106.701 Y45.001 E25.03131
G1 X106.129 Y45.083 E25.05053
G1 X105.556 Y45.015 E25.06972
G1 X105.024 Y44.802 E25.08878
G1 X104.565 Y44.458 E25.10785
G1 X104.211 Y44.009 E25.12687
G1 X103.993 Y43.5 E25.14529
G1 X103.906 Y42.931 E25.16443
G0 F3600 X103.928 Y42.733
G0 X103.419 Y42.67
G0 X103.802 Y41.56
G0 X110.808 Y36.41
G0 X110.37 Y35.788
G1 F1200 X110.289 Y35.934 E25.16999
G1 X110.17 Y35.972 E25.17414
G1 X23.937 Y35.973 E28.04226
G1 X23.936 Y98.572 E30.12431
G1 X110.178 Y98.572 E32.99273
G1 X110.327 Y98.647 E32.99828
G1 X110.37 Y98.772 E33.00268
G1 X110.37 Y107.572 E33.29537
G1 X204.836 Y107.572 E36.43732
G1 X204.836 Y26.972 E39.11809
G1 X110.37 Y26.972 E42.26004
G1 X110.37 Y35.788 E42.55326
G0 F3600 X110.289 Y35.934
G0 X110.257 Y35.944
G0 X110.257 Y36.482
G0 X132.026 Y35.772
G0 X132.536 Y35.772
G1 F1200 X132.585 Y35.64 E42.55794
G1 X132.736 Y35.572 E42.56345
G1 X157.736 Y35.572 E43.39496
G1 X157.889 Y35.642 E43.40055
G1 X157.937 Y35.772 E43.40516
G1 X157.936 Y98.783 E45.50091
G1 X157.857 Y98.932 E45.50652
G1 X157.736 Y98.972 E45.51076
G1 X132.736 Y98.972 E46.34227
G1 X132.585 Y98.904 E46.34777
G1 X132.536 Y98.772 E46.35246
G1 X132.536 Y35.772 E48.44785
G0 F3600 X132.585 Y35.64
G0 X132.639 Y35.616
G0 X132.639 Y35.062
G0 X153.483 Y35.119
G0 X168.867 Y35.231
G0 X169.377 Y35.231
G1 F1200 X169.428 Y35.097 E48.45261
G1 X169.577 Y35.031 E48.45803
G1 X189.577 Y35.031 E49.12324
G1 X189.728 Y35.099 E49.12875
G1 X189.778 Y35.231 E49.13344
G1 X189.778 Y98.343 E51.23255
G1 X189.717 Y98.487 E51.23776
G1 X189.577 Y98.543 E51.24277
G1 X169.577 Y98.543 E51.90797
G1 X169.429 Y98.478 E51.91335
G1 X169.377 Y98.343 E51.91816
G1 X169.377 Y35.231 E54.01727
G0 F3600 X169.428 Y35.097
G0 X169.48 Y35.074
G0 X168.977 Y35.231
;TYPE:WALL-INNER
G1 F1200 X169.038 Y34.966 E54.02632
G1 X169.197 Y34.766 E54.03482
G1 X169.473 Y34.64 E54.04491
G1 X169.577 Y34.631 E54.04838
G1 X189.577 Y34.631 E54.71358
G1 X189.789 Y34.669 E54.72075
G1 X190.03 Y34.837 E54.73052
G1 X190.149 Y35.047 E54.73855
G1 X190.178 Y35.231 E54.74474
G1 X190.178 Y98.343 E56.84385
G1 X190.125 Y98.588 E56.85219
G1 X189.995 Y98.774 E56.85974
G1 X189.767 Y98.913 E56.86862
G1 X189.577 Y98.943 E56.87502
G1 X169.577 Y98.943 E57.54022
G1 X169.28 Y98.865 E57.55043
G1 X169.08 Y98.681 E57.55947
G1 X168.981 Y98.417 E57.56885
G1 X168.977 Y98.343 E57.57132
G1 X168.977 Y35.231 E59.67043
G0 F3600 X168.867 Y35.231
G0 X158.374 Y35.134
G0 X132.098 Y35.134
G0 X132.136 Y35.772
G1 F1200 X132.192 Y35.517 E59.67911
G1 X132.35 Y35.312 E59.68772
G1 X132.632 Y35.18 E59.69808
G1 X132.736 Y35.172 E59.70155
G1 X157.736 Y35.172 E60.53305
G1 X157.951 Y35.211 E60.54032
G1 X158.193 Y35.382 E60.55017
G1 X158.316 Y35.615 E60.55894
G1 X158.337 Y35.772 E60.56421
G1 X158.336 Y98.772 E62.65959
G1 X158.291 Y99.002 E62.66739
G1 X158.163 Y99.194 E62.67506
G1 X157.932 Y99.34 E62.68415
G1 X157.736 Y99.372 E62.69076
G1 X132.736 Y99.372 E63.52226
G1 X132.524 Y99.334 E63.52942
G1 X132.283 Y99.167 E63.53918
G1 X132.147 Y98.891 E63.54941
G1 X132.136 Y98.772 E63.55339
G1 X132.136 Y35.772 E65.64877
G0 F3600 X132.026 Y35.772
G0 X105.416 Y40.32
G0 X104.212 Y41.024
G0 X103.586 Y42.096
G0 X103.402 Y43.001
G0 X103.51 Y42.987
G1 F1200 X103.573 Y42.309 E65.67142
G1 X103.813 Y41.658 E65.6945
G1 X104.199 Y41.119 E65.71655
G1 X104.733 Y40.677 E65.7396
G1 X105.352 Y40.397 E65.7622
G1 X106.025 Y40.288 E65.78488
G1 X106.702 Y40.356 E65.80751
G1 X107.335 Y40.596 E65.83002
G1 X107.885 Y40.993 E65.85258
G1 X108.312 Y41.515 E65.87501
G1 X108.583 Y42.116 E65.89694
G1 X108.696 Y42.781 E65.91938
G1 X108.633 Y43.46 E65.94206
G1 X108.393 Y44.11 E65.9651
G1 X108.007 Y44.649 E65.98715
G1 X107.472 Y45.091 E66.01023
G1 X106.854 Y45.371 E66.0328
G1 X106.181 Y45.479 E66.05547
G1 X105.504 Y45.412 E66.0781
G1 X104.976 Y45.216 E66.09683
G1 X104.734 Y45.093 E66.10586
G1 X104.321 Y44.775 E66.1232
G1 X103.894 Y44.253 E66.14563
G1 X103.623 Y43.653 E66.16752
G1 X103.51 Y42.987 E66.18999
G0 F3600 X103.402 Y43.001
G0 X104.828 Y49.134
G0 X104.828 Y85.259
G0 X103.469 Y92.016
G0 X103.577 Y92.002
G1 F1200 X103.64 Y91.323 E66.21267
G1 X103.88 Y90.674 E66.23569
G1 X104.265 Y90.135 E66.25772
G1 X104.801 Y89.691 E66.28087
G1 X105.42 Y89.412 E66.30345
G1 X106.092 Y89.303 E66.32609
G1 X106.769 Y89.371 E66.34872
G1 X107.402 Y89.611 E66.37124
G1 X107.951 Y90.007 E66.39375
G1 X108.378 Y90.53 E66.41621
G1 X108.649 Y91.129 E66.43808
G1 X108.765 Y91.816 E66.46125
G1 X108.699 Y92.479 E66.48341
G1 X108.46 Y93.125 E66.50632
G1 X108.074 Y93.664 E66.52837
G1 X107.54 Y94.106 E66.55143
G1 X106.921 Y94.386 E66.57402
G1 X106.248 Y94.495 E66.5967
G1 X105.572 Y94.427 E66.6193
G1 X104.939 Y94.187 E66.64181
G1 X104.388 Y93.79 E66.6644
G1 X103.961 Y93.268 E66.68683
G1 X103.69 Y92.667 E66.70876
G1 X103.577 Y92.002 E66.73119
G0 F3600 X103.469 Y92.016
G0 X103.871 Y93.227
G0 X110.192 Y98.062
G0 X110.192 Y98.172
G1 F1200 X110.433 Y98.232 E66.73945
G1 X110.656 Y98.419 E66.74913
G1 X110.764 Y98.683 E66.75862
G1 X110.77 Y98.772 E66.76159
G1 X110.77 Y107.172 E67.04097
G1 X204.436 Y107.172 E70.15632
G1 X204.436 Y27.372 E72.81047
G1 X110.77 Y27.372 E75.92582
G1 X110.769 Y35.818 E76.20673
G1 X110.689 Y36.075 E76.21569
G1 X110.483 Y36.285 E76.22547
G1 X110.196 Y36.372 E76.23544
G1 X24.337 Y36.373 E79.09113
G1 X24.336 Y98.172 E81.14657
G1 X110.192 Y98.172 E84.00215
G0 F3600 X110.192 Y98.062
G0 X46.64 Y94.424
G0 X45.337 Y93.987
G0 X44.44 Y92.974
G0 X44.102 Y91.727
G0 X44.21 Y91.72
G1 F1200 X44.313 Y91.046 E84.02483
G1 X44.595 Y90.409 E84.048
G1 X45.031 Y89.88 E84.0708
G1 X45.574 Y89.488 E84.09307
G1 X46.212 Y89.246 E84.11577
G1 X46.886 Y89.18 E84.13829
G1 X47.555 Y89.288 E84.16083
G1 X48.176 Y89.57 E84.18352
G1 X48.699 Y90.001 E84.20606
G1 X49.08 Y90.527 E84.22766
G1 X49.314 Y91.133 E84.24927
G1 X49.398 Y91.83 E84.27262
G1 X49.296 Y92.5 E84.29516
G1 X49.02 Y93.124 E84.31785
G1 X48.582 Y93.666 E84.34103
G1 X48.033 Y94.062 E84.36354
G1 X47.396 Y94.303 E84.3862
G1 X46.722 Y94.37 E84.40872
G1 X46.053 Y94.262 E84.43126
G1 X45.431 Y93.978 E84.454
G1 X44.91 Y93.55 E84.47643
G1 X44.527 Y93.02 E84.49818
G1 X44.284 Y92.39 E84.52064
G1 X44.21 Y91.72 E84.54306
G0 F3600 X44.102 Y91.727
G0 X52.787 Y49.772
G0 X52.897 Y49.772
G1 F1200 X52.965 Y49.492 E84.55264
G1 X53.111 Y49.312 E84.56035
G1 X53.325 Y49.196 E84.56845
G1 X53.979 Y49.172 E84.59021
G1 X104.19 Y49.171 E86.26024
G1 X104.434 Y49.223 E86.26854
G1 X104.651 Y49.387 E86.27758
G1 X104.77 Y49.614 E86.28611
G1 X104.79 Y50.598 E86.31884
G1 X104.789 Y84.671 E87.45211
G1 X104.697 Y84.943 E87.46166
G1 X104.523 Y85.121 E87.46994
G1 X104.275 Y85.216 E87.47878
G1 X103.263 Y85.221 E87.51244
G1 X101.334 Y85.222 E87.57659
G1 X53.497 Y85.221 E89.16766
G1 X53.219 Y85.153 E89.17718
G1 X53.038 Y85.009 E89.18487
G1 X52.926 Y84.808 E89.19252
G1 X52.897 Y84.354 E89.20766
G1 X52.897 Y49.772 E90.35786
G0 F3600 X52.787 Y49.772
G0 X45.284 Y44.995
G0 X44.38 Y43.989
G0 X44.032 Y42.722
G0 X44.14 Y42.714
G1 F1200 X44.243 Y42.054 E90.38007
G1 X44.518 Y41.423 E90.40297
G1 X44.951 Y40.889 E90.42583
G1 X45.492 Y40.494 E90.44811
G1 X46.129 Y40.249 E90.47081
G1 X46.801 Y40.177 E90.49329
G1 X47.47 Y40.282 E90.51582
G1 X48.093 Y40.559 E90.53849
G1 X48.621 Y40.987 E90.5611
G1 X49.004 Y41.512 E90.58271
G1 X49.253 Y42.142 E90.60524
G1 X49.33 Y42.814 E90.62774
G1 X49.23 Y43.486 E90.65034
G1 X48.954 Y44.123 E90.67343
G1 X48.521 Y44.658 E90.69632
G1 X47.979 Y45.053 E90.71863
G1 X47.344 Y45.298 E90.74126
G1 X46.67 Y45.369 E90.76381
G1 X46.002 Y45.264 E90.7863
G1 X45.379 Y44.987 E90.80897
G1 X44.852 Y44.56 E90.83153
G1 X44.467 Y44.032 E90.85327
G1 X44.218 Y43.402 E90.8758
G1 X44.14 Y42.714 E90.89883
G0 F3600 X43.842 Y43.539
G1 F1200 X43.786 Y43.28 E90.90764
G1 X43.742 Y42.747 E90.92543
G1 X43.756 Y42.478 E90.93439
G1 X43.85 Y41.98 E90.95124
G1 X44.156 Y41.253 E90.97748
G1 X44.648 Y40.627 E91.00396
G1 X45.266 Y40.164 E91.02964
G1 X45.997 Y39.871 E91.05584
G1 X46.25 Y39.818 E91.06444
G1 X46.77 Y39.778 E91.08178
G1 X47.544 Y39.889 E91.10779
G1 X48.267 Y40.198 E91.13394
G1 X48.882 Y40.685 E91.16003
G1 X49.334 Y41.286 E91.18504
G1 X49.629 Y42.006 E91.21092
G1 X49.685 Y42.262 E91.21964
G1 X49.729 Y42.78 E91.23693
G1 X49.716 Y43.044 E91.24572
G1 X49.623 Y43.557 E91.26306
G1 X49.545 Y43.804 E91.27168
G1 X49.316 Y44.293 E91.28964
G1 X49.167 Y44.522 E91.29872
G1 X48.824 Y44.919 E91.31617
G1 X48.632 Y45.091 E91.32475
G1 X48.205 Y45.383 E91.34195
G1 X47.972 Y45.501 E91.35064
G1 X47.477 Y45.675 E91.36809
G1 X47.22 Y45.729 E91.37682
G1 X46.7 Y45.768 E91.39417
G1 X45.928 Y45.657 E91.42011
G1 X45.678 Y45.575 E91.42886
G1 X45.168 Y45.328 E91.44771
G1 X44.591 Y44.863 E91.47235
G1 X44.417 Y44.669 E91.48102
G1 X44.103 Y44.205 E91.49966
G1 X43.842 Y43.539 E91.52345
G0 F3600 X44.757 Y44.543
G0 X52.497 Y49.772
G1 F1200 X52.556 Y49.432 E91.53492
G1 X52.759 Y49.095 E91.54801
G1 X53.088 Y48.859 E91.56148
G1 X53.418 Y48.774 E91.57281
G1 X53.979 Y48.772 E91.59147
G1 X104.19 Y48.771 E93.26149
G1 X104.544 Y48.835 E93.27346
G1 X104.874 Y49.041 E93.2864
G1 X105.055 Y49.267 E93.29603
G1 X105.179 Y49.622 E93.30854
G1 X105.19 Y50.598 E93.341
G1 X105.19 Y84.66 E94.47391
