;FLAVOR:Marlin
;TIME:11284
;Filament used: 8.93486m
;Layer height: 0.2
;MINX:11.554
;MINY:17.075
;MINZ:0.2
;MAXX:180.182
;MAXY:102.823
;MAXZ:12.6
;Generated with Cura_SteamEngine 5.0.0
M140 S60
M105
M190 S60
M104 S200
M105
M109 S200
M82 ;absolute extrusion mode
; -- START GCODE --
G21                     ;set units to millimetres
G90                     ;set to absolute positioning
M106 S0                 ;set fan speed to zero (turned off)
G28                     ;home all axis
G92 E0                  ;zero the extruded length
G1 Z1 F1000             ;move up slightly
G1 Y60.0 Z0 E9.0 F1000.0;intro line
G1 Y100.0 E21.5 F1000.0 ;continue line
G92 E0                  ;zero the extruded length again
; -- end of START GCODE --
G92 E0
G92 E0
G1 F2700 E-5
;LAYER_COUNT:63
;LAYER:0
M107
G0 F3600 X13.369 Y26.077 Z0.2
G0 X11.554 Y29.605
;TYPE:SKIRT
G1 F2700 E0
G1 F1200 X11.563 Y28.916 E0.02292
G1 X11.61 Y28.413 E0.03972
G1 X11.735 Y27.923 E0.05654
G1 X11.936 Y27.459 E0.07336
G1 X12.207 Y27.032 E0.09018
G1 X12.542 Y26.654 E0.10698
G1 X12.933 Y26.333 E0.1238
G1 X13.369 Y26.077 E0.14062
G1 X13.84 Y25.894 E0.15743
G1 X14.334 Y25.787 E0.17424
G1 X14.994 Y25.75 E0.19623
G1 X45.337 Y25.749 E1.20544
G1 X48.134 Y25.709 E1.29848
G1 X50.851 Y25.594 E1.38892
G1 X53.598 Y25.399 E1.48052
G1 X56.302 Y25.131 E1.5709
G1 X59.026 Y24.783 E1.66223
G1 X61.726 Y24.358 E1.75314
G1 X64.416 Y23.858 E1.84414
G1 X67.063 Y23.291 E1.93418
G1 X69.787 Y22.621 E2.02748
G1 X72.378 Y21.908 E2.11686
G1 X75.025 Y21.098 E2.20893
G1 X77.595 Y20.231 E2.29914
G1 X80.328 Y19.221 E2.39605
G1 X80.954 Y18.977 E2.4184
G1 X81.438 Y18.831 E2.43521
G1 X81.797 Y18.775 E2.4473
G1 X84.691 Y18.486 E2.54403
G1 X87.424 Y18.133 E2.63568
G1 X90.127 Y17.706 E2.7267
G1 X93.139 Y17.139 E2.82864
G1 X93.641 Y17.085 E2.84543
G1 X94.05 Y17.075 E2.85904
G1 X98.855 Y17.075 E3.01886
G1 X99.565 Y17.086 E3.04247
G1 X100.053 Y17.132 E3.05878
G1 X102.67 Y17.578 E3.14707
G1 X105.378 Y17.964 E3.23805
G1 X108.146 Y18.278 E3.33071
G1 X110.826 Y18.507 E3.42017
G1 X113.576 Y18.661 E3.51178
G1 X117.697 Y18.749 E3.64887
G1 X176.321 Y18.749 E5.59872
G1 X177.019 Y18.759 E5.62193
G1 X177.522 Y18.806 E5.63874
G1 X178.012 Y18.932 E5.65556
G1 X178.476 Y19.134 E5.6724
G1 X178.902 Y19.406 E5.68921
G1 X179.28 Y19.741 E5.70601
G1 X179.6 Y20.132 E5.72281
G1 X179.855 Y20.569 E5.73964
G1 X180.038 Y21.04 E5.75645
G1 X180.145 Y21.534 E5.77326
G1 X180.181 Y22.189 E5.79508
G1 X180.182 Y97.253 E8.29171
G1 X180.173 Y97.98 E8.3159
G1 X180.127 Y98.483 E8.3327
G1 X180.002 Y98.973 E8.34951
G1 X179.801 Y99.437 E8.36633
G1 X179.53 Y99.864 E8.38315
G1 X179.195 Y100.243 E8.39998
G1 X178.805 Y100.564 E8.41678
G1 X178.369 Y100.82 E8.43359
G1 X177.898 Y101.003 E8.4504
G1 X177.404 Y101.111 E8.46722
G1 X176.742 Y101.148 E8.48927
G1 X117.764 Y101.149 E10.45089
G1 X114.967 Y101.189 E10.54393
G1 X112.25 Y101.304 E10.63438
G1 X109.504 Y101.499 E10.72594
G1 X106.798 Y101.767 E10.81638
G1 X104.081 Y102.115 E10.90749
G1 X101.254 Y102.56 E11.00267
G1 X100.046 Y102.768 E11.04344
G1 X99.273 Y102.822 E11.06921
G1 X94.382 Y102.823 E11.23189
G1 X93.681 Y102.813 E11.25521
G1 X93.142 Y102.759 E11.27322
G1 X92.006 Y102.547 E11.31166
G1 X91.409 Y102.427 E11.33191
G1 X88.68 Y101.959 E11.424
G1 X85.986 Y101.576 E11.51451
G1 X83.118 Y101.255 E11.61049
G1 X81.794 Y101.121 E11.65475
G1 X81.095 Y100.97 E11.67854
G1 X80.473 Y100.76 E11.70037
G1 X78.944 Y100.221 E11.7543
G1 X76.307 Y99.374 E11.84642
G1 X73.699 Y98.616 E11.93675
G1 X71.062 Y97.931 E12.02737
G1 X68.357 Y97.31 E12.11968
G1 X65.675 Y96.772 E12.21066
G1 X62.992 Y96.313 E12.30119
G1 X60.303 Y95.931 E12.39152
G1 X57.57 Y95.622 E12.483
G1 X54.822 Y95.389 E12.57473
G1 X52.103 Y95.236 E12.66531
G1 X48.003 Y95.149 E12.8017
G1 X15.415 Y95.149 E13.88559
G1 X14.717 Y95.139 E13.9088
G1 X14.214 Y95.092 E13.92561
G1 X13.724 Y94.966 E13.94243
G1 X13.26 Y94.764 E13.95927
G1 X12.834 Y94.492 E13.97608
G1 X12.456 Y94.157 E13.99288
G1 X12.136 Y93.766 E14.00968
G1 X11.881 Y93.329 E14.02651
G1 X11.698 Y92.858 E14.04332
G1 X11.591 Y92.364 E14.06013
G1 X11.555 Y91.694 E14.08244
G1 X11.554 Y29.605 E16.14753
G1 F2700 E11.14753
G0 F3600 X14.673 Y29.337
;TYPE:SUPPORT
G1 F2700 E16.14753
G1 F1200 X26.062 Y29.337 E16.52633
G0 F3600 X24.003 Y28.869
G1 F1200 X24.003 Y92.029 E18.62704
G0 F3600 X26.061 Y90.678
G1 F1200 X14.673 Y90.678 E19.00581
G0 F3600 X16.002 Y92.029
G1 F1200 X16.002 Y28.869 E21.10652
G0 F3600 X18.669 Y28.869
G1 F1200 X18.669 Y92.029 E23.20723
G0 F3600 X21.336 Y92.029
G1 F1200 X21.336 Y28.869 E25.30794
G1 F2700 E20.30794
G0 F3600 X26.017 Y32.004
G0 X26.061 Y32.004
G1 F2700 E25.30794
G1 F1200 X14.673 Y32.004 E25.68671
G0 F3600 X14.673 Y34.671
G1 F1200 X26.061 Y34.671 E26.06547
G0 F3600 X26.061 Y37.338
G1 F1200 X14.673 Y37.338 E26.44424
G0 F3600 X14.673 Y40.005
G1 F1200 X26.061 Y40.005 E26.823
G0 F3600 X26.061 Y42.672
G1 F1200 X14.673 Y42.672 E27.20177
G0 F3600 X14.673 Y45.339
G1 F1200 X25.523 Y45.339 E27.56264
G0 F3600 X25.523 Y48.006
G1 F1200 X14.673 Y48.006 E27.92352
G0 F3600 X14.673 Y50.673
G1 F1200 X25.523 Y50.673 E28.28439
G0 F3600 X25.523 Y53.34
G1 F1200 X14.673 Y53.34 E28.64526
G0 F3600 X14.673 Y56.007
G1 F1200 X25.523 Y56.007 E29.00613
G0 F3600 X25.523 Y58.674
G1 F1200 X14.673 Y58.674 E29.36701
G0 F3600 X14.673 Y61.341
G1 F1200 X25.523 Y61.341 E29.72788
G0 F3600 X25.523 Y64.008
G1 F1200 X14.673 Y64.008 E30.08875
G0 F3600 X14.673 Y66.675
G1 F1200 X25.523 Y66.675 E30.44962
G0 F3600 X25.523 Y69.342
G1 F1200 X14.673 Y69.342 E30.8105
G0 F3600 X14.673 Y72.009
G1 F1200 X25.523 Y72.009 E31.17137
G0 F3600 X25.523 Y74.676
G1 F1200 X14.673 Y74.676 E31.53224
G0 F3600 X14.673 Y77.343
G1 F1200 X25.523 Y77.343 E31.89311
G0 F3600 X26.061 Y80.01
G1 F1200 X14.673 Y80.01 E32.27188
G0 F3600 X14.673 Y82.677
G1 F1200 X26.061 Y82.677 E32.65065
G0 F3600 X26.061 Y85.344
G1 F1200 X14.673 Y85.344 E33.02941
G0 F3600 X14.673 Y88.011
G1 F1200 X26.061 Y88.011 E33.40818
G1 F2700 E28.40818
G0 F3600 X26.017 Y88.011
G0 X26.029 Y28.296
G0 X81.464 Y21.296
G0 X96.012 Y21.284
G0 X96.012 Y21.329
G1 F2700 E33.40818
G1 F1200 X96.012 Y20.195 E33.4459
G0 F3600 X98.679 Y20.195
G1 F1200 X98.679 Y21.329 E33.48361
G1 F2700 E28.48361
G0 F3600 X98.679 Y21.284
G0 X177.635 Y21.296
G0 X177.635 Y98.602
G0 X98.679 Y98.614
G0 X98.679 Y98.569
G1 F2700 E33.48361
G1 F1200 X98.679 Y99.703 E33.52133
G0 F3600 X99.593 Y98.679
G1 F1200 X93.641 Y98.679 E33.71929
G0 F3600 X96.012 Y98.569
G1 F1200 X96.012 Y99.703 E33.75701
G1 F2700 E28.75701
;MESH:PI-RACK-HARD-DRIVE-PLATE.stl
G0 F3600 X96.012 Y97.519
G0 X76.891 Y87.2
G0 X76.168 Y86.532
G0 X75.416 Y85.189
G1 F2700 E33.75701
G0 F3600 X75.92 Y85.12
;TYPE:WALL-OUTER
G1 F1200 X75.919 Y85.085 E33.75818
G1 X75.984 Y84.546 E33.77623
G1 X76.191 Y84.018 E33.7951
G1 X76.531 Y83.554 E33.81423
G1 X76.995 Y83.184 E33.83397
G1 X77.519 Y82.959 E33.85293
G1 X78.091 Y82.877 E33.87215
G1 X78.663 Y82.945 E33.89131
G1 X79.196 Y83.158 E33.9104
G1 X79.655 Y83.502 E33.92948
G1 X79.998 Y83.938 E33.94793
G1 X80.228 Y84.464 E33.96703
G1 X80.316 Y85.048 E33.98667
G1 X80.25 Y85.607 E34.00539
G1 X80.043 Y86.134 E34.02422
G1 X79.701 Y86.599 E34.04342
G1 X79.24 Y86.968 E34.06306
G1 X78.714 Y87.193 E34.08209
G1 X78.143 Y87.275 E34.10127
G1 X77.57 Y87.207 E34.12047
G1 X77.038 Y86.994 E34.13953
G1 X76.579 Y86.65 E34.1586
G1 X76.236 Y86.214 E34.17706
G1 X76.006 Y85.688 E34.19615
G1 X75.92 Y85.12 E34.21526
G0 F3600 X75.919 Y85.085
G0 X75.938 Y84.921
G0 X75.433 Y84.859
G0 X76.64 Y79.079
G0 X76.847 Y77.825
G0 X76.336 Y77.825
G1 F1200 X76.248 Y77.965 E34.22076
G1 X76.015 Y77.999 E34.22859
G1 X26.883 Y77.999 E35.86273
G1 X26.883 Y91.749 E36.32005
G1 X82.127 Y91.749 E38.15748
G1 X82.276 Y91.826 E38.16305
G1 X82.317 Y91.949 E38.16737
G1 X82.317 Y97.749 E38.36027
G1 X176.782 Y97.749 E41.50219
G1 X176.782 Y22.149 E44.01666
G1 X82.317 Y22.149 E47.15858
G1 X82.316 Y28.97 E47.38545
G1 X82.235 Y29.111 E47.39085
G1 X82.117 Y29.149 E47.39498
G1 X26.882 Y29.149 E49.2321
G1 X26.882 Y42.749 E49.68444
G1 X76.137 Y42.748 E51.32267
G1 X76.291 Y42.82 E51.32832
G1 X76.337 Y42.949 E51.33288
G1 X76.338 Y75.982 E52.43156
G1 X76.336 Y77.825 E52.49286
G0 F3600 X76.248 Y77.965
G0 X76.214 Y77.97
G0 X76.214 Y78.508
G0 X76.775 Y42.311
G0 X75.348 Y36.174
G0 X75.852 Y36.105
G1 F1200 X75.917 Y35.532 E52.51204
G1 X76.123 Y35.004 E52.53089
G1 X76.465 Y34.538 E52.55011
G1 X76.926 Y34.169 E52.56975
G1 X77.452 Y33.945 E52.58877
G1 X78.022 Y33.862 E52.60793
G1 X78.597 Y33.931 E52.62719
G1 X79.128 Y34.143 E52.6462
G1 X79.587 Y34.487 E52.66528
G1 X79.93 Y34.923 E52.68373
G1 X80.16 Y35.45 E52.70286
G1 X80.246 Y36.017 E52.72193
G1 X80.182 Y36.591 E52.74114
G1 X79.975 Y37.119 E52.76
G1 X79.635 Y37.584 E52.77916
G1 X79.171 Y37.953 E52.79888
G1 X78.647 Y38.178 E52.81785
G1 X78.075 Y38.26 E52.83707
G1 X77.503 Y38.192 E52.85623
G1 X76.97 Y37.979 E52.87532
G1 X76.512 Y37.636 E52.89435
G1 X76.168 Y37.199 E52.91285
G1 X75.939 Y36.673 E52.93193
G1 X75.852 Y36.105 E52.95104
G0 F3600 X75.874 Y35.907
G0 X75.366 Y35.843
G0 X75.741 Y34.754
G0 X76.719 Y33.763
G0 X103.972 Y28.949
G0 X104.482 Y28.949
G1 F1200 X104.533 Y28.814 E52.95584
G1 X104.682 Y28.749 E52.96125
G1 X129.682 Y28.749 E53.79275
G1 X129.81 Y28.794 E53.79726
G1 X129.882 Y28.93 E53.80238
G1 X129.882 Y91.952 E55.8985
G1 X129.826 Y92.089 E55.90342
G1 X129.682 Y92.149 E55.90861
G1 X104.682 Y92.149 E56.74012
G1 X104.55 Y92.1 E56.7448
G1 X104.482 Y91.949 E56.75031
G1 X104.482 Y28.949 E58.8457
G0 F3600 X104.533 Y28.814
G0 X104.584 Y28.792
G0 X104.584 Y28.239
G0 X125.429 Y28.296
G0 X140.814 Y28.408
G0 X141.324 Y28.408
G1 F1200 X141.387 Y28.261 E58.85101
G1 X141.524 Y28.208 E58.8559
G1 X161.524 Y28.208 E59.5211
G1 X161.656 Y28.257 E59.52579
G1 X161.724 Y28.408 E59.53129
G1 X161.723 Y91.548 E61.63134
G1 X161.656 Y91.672 E61.63603
G1 X161.524 Y91.721 E61.64071
G1 X141.524 Y91.721 E62.30591
G1 X141.387 Y91.668 E62.3108
G1 X141.324 Y91.521 E62.31612
G1 X141.324 Y28.408 E64.41526
G0 F3600 X141.387 Y28.261
G0 X141.425 Y28.247
G0 X140.924 Y28.408
;TYPE:WALL-INNER
G1 F1200 X140.972 Y28.17 E64.42334
G1 X141.113 Y27.969 E64.43151
G1 X141.368 Y27.828 E64.4412
G1 X141.524 Y27.808 E64.44643
G1 X161.524 Y27.808 E65.11163
G1 X161.807 Y27.878 E65.12133
G1 X162.005 Y28.047 E65.12999
G1 X162.119 Y28.328 E65.14007
G1 X162.124 Y28.408 E65.14274
G1 X162.124 Y91.521 E67.24188
G1 X162.064 Y91.785 E67.25089
G1 X161.919 Y91.974 E67.25881
G1 X161.628 Y92.113 E67.26954
G1 X161.524 Y92.121 E67.27301
G1 X141.524 Y92.121 E67.93821
G1 X141.229 Y92.044 E67.94835
G1 X141.029 Y91.862 E67.95734
G1 X140.925 Y91.565 E67.96781
G1 X140.924 Y28.408 E70.06842
G0 F3600 X140.814 Y28.408
G0 X130.32 Y28.311
G0 X104.044 Y28.311
G0 X104.082 Y28.949
G1 F1200 X104.128 Y28.718 E70.07626
G1 X104.236 Y28.546 E70.08301
G1 X104.427 Y28.405 E70.09091
G1 X104.682 Y28.349 E70.09959
G1 X129.682 Y28.349 E70.93109
G1 X129.955 Y28.414 E70.94043
G1 X130.151 Y28.574 E70.94884
G1 X130.274 Y28.846 E70.95877
G1 X130.282 Y28.949 E70.96221
G1 X130.282 Y91.956 E73.05783
G1 X130.248 Y92.15 E73.06438
G1 X130.113 Y92.367 E73.07288
G1 X129.849 Y92.526 E73.08313
G1 X129.682 Y92.549 E73.08874
G1 X104.682 Y92.549 E73.92024
G1 X104.399 Y92.479 E73.92994
G1 X104.202 Y92.309 E73.93859
G1 X104.087 Y92.029 E73.94866
G1 X104.082 Y91.949 E73.95132
G1 X104.082 Y28.949 E76.04671
G0 F3600 X103.972 Y28.949
G0 X77.363 Y33.498
G0 X76.158 Y34.201
G0 X75.533 Y35.272
G0 X75.348 Y36.175
G0 X75.456 Y36.161
G1 F1200 X75.52 Y35.482 E76.0694
G1 X75.752 Y34.854 E76.09166
G1 X76.145 Y34.298 E76.11431
G1 X76.68 Y33.854 E76.13743
G1 X77.3 Y33.575 E76.16005
G1 X77.969 Y33.466 E76.18259
G1 X78.649 Y33.535 E76.20532
G1 X79.28 Y33.773 E76.22775
G1 X79.831 Y34.17 E76.25034
G1 X80.248 Y34.679 E76.27223
G1 X80.528 Y35.294 E76.2947
G1 X80.642 Y35.962 E76.31724
G1 X80.579 Y36.64 E76.33989
G1 X80.345 Y37.27 E76.36224
G1 X79.955 Y37.824 E76.38478
G1 X79.417 Y38.269 E76.408
G1 X78.8 Y38.548 E76.43052
G1 X78.127 Y38.656 E76.45319
G1 X77.451 Y38.589 E76.47578
G1 X76.921 Y38.392 E76.49459
G1 X76.681 Y38.27 E76.50355
G1 X76.268 Y37.954 E76.52084
G1 X75.85 Y37.443 E76.5428
G1 X75.571 Y36.828 E76.56526
G1 X75.456 Y36.161 E76.58777
G0 F3600 X75.348 Y36.175
G0 X76.503 Y41.144
G0 X76.847 Y42.791
G0 X76.717 Y42.791
G1 F1200 X76.738 Y43.743 E76.61944
G1 X76.737 Y45.851 E76.68956
G1 X76.738 Y75.982 E77.69172
G1 X76.736 Y77.848 E77.75378
G1 X76.644 Y78.12 E77.76333
G1 X76.47 Y78.298 E77.77161
G1 X76.221 Y78.393 E77.78047
G1 X75.213 Y78.398 E77.814
G1 X73.754 Y78.399 E77.86253
G1 X72.141 Y78.398 E77.91618
G1 X27.283 Y78.399 E79.40816
G1 X27.283 Y91.349 E79.83888
G1 X82.145 Y91.349 E81.6636
G1 X82.435 Y91.439 E81.67369
G1 X82.636 Y91.646 E81.68329
G1 X82.713 Y91.879 E81.69145
G1 X82.717 Y91.949 E81.69378
G1 X82.717 Y97.349 E81.87339
G1 X176.382 Y97.349 E84.9887
G1 X176.382 Y22.549 E87.47656
G1 X82.717 Y22.549 E90.59187
G1 X82.717 Y28.949 E90.80473
G1 X82.651 Y29.224 E90.81414
G1 X82.47 Y29.435 E90.82339
G1 X82.226 Y29.54 E90.83222
G1 X81.4 Y29.549 E90.8597
G1 X78.912 Y29.55 E90.94245
G1 X72.173 Y29.549 E91.16659
G1 X27.282 Y29.549 E92.65967
G1 X27.282 Y42.349 E93.0854
G1 X76.137 Y42.348 E94.71032
G1 X76.381 Y42.4 E94.71862
G1 X76.598 Y42.564 E94.72767
G1 X76.717 Y42.791 E94.73619
G0 F3600 X76.847 Y42.791
G0 X76.775 Y78.436
G0 X75.416 Y85.189
G0 X75.524 Y85.175
G1 F1200 X75.519 Y85.073 E94.73959
G1 X75.587 Y84.497 E94.75888
G1 X75.821 Y83.867 E94.78123
G1 X76.211 Y83.314 E94.80374
G1 X76.749 Y82.868 E94.82698
G1 X77.366 Y82.589 E94.8495
G1 X78.039 Y82.48 E94.87218
G1 X78.715 Y82.548 E94.89478
G1 X79.349 Y82.788 E94.91732
G1 X79.899 Y83.185 E94.93988
G1 X80.315 Y83.694 E94.96175
G1 X80.596 Y84.308 E94.98421
G1 X80.712 Y84.993 E95.00731
G1 X80.646 Y85.659 E95.02957
G1 X80.413 Y86.285 E95.05179
G1 X80.021 Y86.839 E95.07436
G1 X79.486 Y87.284 E95.09751
G1 X78.867 Y87.563 E95.12009
G1 X78.195 Y87.672 E95.14273
G1 X77.518 Y87.604 E95.16536
G1 X76.885 Y87.364 E95.18788
G1 X76.335 Y86.967 E95.21044
G1 X75.918 Y86.458 E95.23233
G1 X75.638 Y85.844 E95.25477
G1 X75.524 Y85.175 E95.27734
G0 F3600 X75.2 Y85.748
G1 F1200 X75.128 Y85.23 E95.29474
G1 X75.119 Y85.061 E95.30037
G1 X75.19 Y84.449 E95.32086
G1 X75.256 Y84.194 E95.32962
G1 X75.45 Y83.717 E95.34675
G1 X75.891 Y83.074 E95.37268
G1 X76.503 Y82.553 E95.39941
G1 X77.213 Y82.219 E95.42551
G1 X77.466 Y82.152 E95.43421
G1 X77.987 Y82.084 E95.45169
G1 X78.247 Y82.084 E95.46034
G1 X78.767 Y82.152 E95.47778
G1 X79.019 Y82.219 E95.48645
G1 X79.501 Y82.418 E95.50379
G1 X79.73 Y82.55 E95.51259
G1 X80.143 Y82.868 E95.52992
G1 X80.325 Y83.051 E95.53851
G1 X80.669 Y83.5 E95.55732
G1 X80.964 Y84.152 E95.58112
G1 X81.034 Y84.404 E95.58982
G1 X81.108 Y84.938 E95.60775
G1 X81.109 Y85.206 E95.61667
G1 X81.036 Y85.757 E95.63515
G1 X80.784 Y86.435 E95.65921
G1 X80.657 Y86.66 E95.6678
G1 X80.312 Y87.116 E95.68682
G1 X79.732 Y87.599 E95.71193
G1 X79.02 Y87.933 E95.73808
G1 X78.247 Y88.068 E95.76418
G1 X77.987 Y88.068 E95.77283
G1 X77.466 Y88 E95.7903
G1 X76.732 Y87.734 E95.81627
G1 X76.091 Y87.285 E95.8423
G1 X75.601 Y86.701 E95.86766
G1 X75.269 Y86 E95.89345
G1 X75.2 Y85.748 E95.90214
G0 F3600 X76.775 Y78.436
G0 X77.001 Y42.444
G1 F1200 X77.126 Y42.799 E95.91466
G1 X77.138 Y43.743 E95.94606
G1 X77.137 Y45.851 E96.01618
G1 X77.138 Y75.982 E97.01834
G1 X77.137 Y77.837 E97.08003
G1 X77.05 Y78.207 E97.09268
G1 X76.887 Y78.46 E97.10269
G1 X76.692 Y78.631 E97.11131
G1 X76.406 Y78.762 E97.12177
G1 X76.015 Y78.799 E97.13484
G1 X27.683 Y78.799 E98.74237
G1 X27.683 Y90.949 E99.14648
G1 X82.163 Y90.949 E100.95849
G1 X82.554 Y91.049 E100.97191
G1 X82.844 Y91.261 E100.98386
G1 X83.042 Y91.567 E100.99598
G1 X83.117 Y91.949 E101.00893
G1 X83.117 Y96.949 E101.17523
G1 X175.982 Y96.949 E104.26393
G1 X175.982 Y22.949 E106.72518
G1 X83.117 Y22.949 E109.81389
G1 X83.117 Y28.949 E110.01345
G1 X83.056 Y29.293 E110.02507
G1 X82.878 Y29.598 E110.03681
G1 X82.633 Y29.807 E110.04752
G1 X82.298 Y29.933 E110.05943
G1 X81.4 Y29.949 E110.0893
G1 X78.912 Y29.95 E110.17205
G1 X77.08 Y29.948 E110.23298
G1 X76.505 Y29.95 E110.25211
G1 X72.173 Y29.949 E110.39619
G1 X27.682 Y29.949 E111.87597
G1 X27.682 Y41.949 E112.27509
G1 X76.137 Y41.948 E113.88671
